X: 18161
T: Humours Of Drinagh, The
R: jig
M: 6/8
K: Dmajor
|:FDF ABc|dfd ecA|FDF ABc|dcA GBG|
FDF ABc|dfd ecA|fef gec|Adc ~d3:|
|:fef gfg|agf gfe|fef gfg|agf ~g3|
agf g2e|f2d ecA|fef gec|Adc ~d3:|

